src/pos-icons/border-horizontal.svg

<svg height="24" viewBox="0 0 24 24" width="24" xmlns="http://www.w3.org/2000/svg"><path d="m19 21h2v-2h-2m-4 2h2v-2h-2m-4-2h2v-2h-2m8-6h2v-2h-2m0-2h2v-2h-2m-16 10h18v-2h-18m8 10h2v-2h-2m8-2h2v-2h-2m-6-12h-2v2h2m0 2h-2v2h2m4-6h-2v2h2m-8-2h-2v2h2m-4-2h-2v2h2m2 16h2v-2h-2m-4-2h2v-2h-2m2-8h-2v2h2m-2 12h2v-2h-2z"/></svg>

<?xml version="1.0" encoding="UTF-8"?><!DOCTYPE svg PUBLIC "-//W3C//DTD SVG 1.1//EN" "http://www.w3.org/Graphics/SVG/1.1/DTD/svg11.dtd"><svg xmlns="http://www.w3.org/2000/svg" xmlns:xlink="http://www.w3.org/1999/xlink" version="1.1" id="mdi-border-horizontal" width="24" height="24" viewBox="0 0 24 24"><path d="M19,21H21V19H19M15,21H17V19H15M11,17H13V15H11M19,9H21V7H19M19,5H21V3H19M3,13H21V11H3M11,21H13V19H11M19,17H21V15H19M13,3H11V5H13M13,7H11V9H13M17,3H15V5H17M9,3H7V5H9M5,3H3V5H5M7,21H9V19H7M3,17H5V15H3M5,7H3V9H5M3,21H5V19H3V21Z" /></svg>
